X: 32137
T: Peter McArdle's
R: polka
M: 2/4
K: Dmajor
|:AD F/E/D|AB de/f/|ge fd|e/f/e/d/ Bd/B/|
AD F/E/D|AB df|af e/g/f/e/|1 d2 d>B:|2 d2 d>A||
|:dd fd|ge fd|BB e>d|cA A(3A/B/c/|
dd fd|ge fd|Be dc|1 d2 d>A:|2 d2 d>B||

